assets/food_11.svg

<svg viewBox="0 0 25.4457 55.8559" xmlns="http://www.w3.org/2000/svg"><path d="m24.9457 21.5161v29.8131a4.0284 4.0284 0 0 1 -4.0292 4.0267h-16.3873a4.0284 4.0284 0 0 1 -4.0292-4.0267v-29.8131a8.9966 8.9966 0 0 1 .6313-3.31l3.1931-8.0828a6.7374 6.7374 0 0 1 3.025.39c2.2863.9385 3.42-.0511 4.7677-.4168a6.8372 6.8372 0 0 1 3.9658-.3656c1.5186.3608 3.43 1.0311 5.1383.6459l3.0932 7.8293a8.9966 8.9966 0 0 1 .6313 3.31z" fill="#f7f7f5"/><path d="m19.5125 6.7912 1.7087 3.5855c-1.7087.3852-3.62-.2851-5.1383-.6459a6.8372 6.8372 0 0 0 -3.9658.3656c-1.3479.3657-2.4814 1.3553-4.7677.4168a6.7374 6.7374 0 0 0 -3.025-.39l1.6161-3.3345a1.22 1.22 0 0 0 .1219-.49c.0219-.7483.0073-2.6032.0073-2.6032a.5685.5685 0 0 0 -.5655-.5192.569.569 0 0 1 -.57-.568v-.9773a1.1318 1.1318 0 0 1 1.1306-1.131h13.3161a1.13 1.13 0 0 1 1.1285 1.131v1.0213a.5513.5513 0 0 1 -.5923.5241.56.56 0 0 0 -.5411.5192s-.0073 1.8866.0195 2.6227a1.1867 1.1867 0 0 0 .117.4729z" fill="#d2f1f9"/><g stroke="#3a3939" stroke-linecap="round" stroke-linejoin="round"><path d="m21.2212 10.3767-1.7087-3.5855a1.1867 1.1867 0 0 1 -.117-.4729c-.0268-.7361-.0195-2.6227-.0195-2.6227a.56.56 0 0 1 .5411-.5192.5513.5513 0 0 0 .5923-.5241v-1.0213a1.13 1.13 0 0 0 -1.1285-1.131h-13.3161a1.1318 1.1318 0 0 0 -1.131 1.131v.9774a.569.569 0 0 0 .57.568.5685.5685 0 0 1 .5655.5192s.0146 1.8549-.0073 2.6032a1.22 1.22 0 0 1 -.1219.49l-1.6157 3.3344" fill="none"/><path d="m4.3244 10.1232-3.1931 8.0828a8.9966 8.9966 0 0 0 -.6313 3.3101v29.8131a4.0284 4.0284 0 0 0 4.0292 4.0267h16.3873a4.0284 4.0284 0 0 0 4.0292-4.0267v-29.8131a8.9966 8.9966 0 0 0 -.6313-3.31l-3.0932-7.8293c-1.7087.3852-3.62-.2851-5.1383-.6459a6.8372 6.8372 0 0 0 -3.9658.3656c-1.3479.3657-2.4814 1.3553-4.7677.4168a6.7374 6.7374 0 0 0 -3.025-.3901z" fill="none"/><rect fill="#bcb8b8" height="3.0622" rx="1.1259" width="15.7722" x="4.8362" y=".5003"/><path d="m9.1519 39.1092a3.9853 3.9853 0 0 1 -1.5262-4.8266c1.1177-3.2638 7.1088-11.0914 8.137-10.18 1.7989 1.5944 2.0521 8.5916.99 11.8654s-4.0763 5.2652-7.6008 3.1412z" fill="#c4764e"/><path d="m15.81 26.5817s.4691 4.9092-.0682 6.8748" fill="none" stroke-width=".5"/><path d="m14.5869 29.032c-.0476.156-1.08 2.2938-1.504 3.3909" fill="none" stroke-width=".5"/><path d="m14.5869 33.981c.1622.212-.424 3.1561-3.4712 4.4733" fill="none" stroke-width=".5"/><path d="m15.517 34.7279a4.4094 4.4094 0 0 1 -2.73 4.1358" fill="none" stroke-width=".5"/><path d="m14.9482 25.8185a11.7552 11.7552 0 0 0 -2.8819 3.473" fill="none" stroke-width=".5"/><path d="m14.7675 27.2105a13.6205 13.6205 0 0 0 -2.1164 3.5958" fill="none" stroke-width=".5"/><path d="m11.3705 30.3285s-1.9012 2.6292-1.9012 3.3534" fill="none" stroke-width=".5"/><path d="m8.729 34.5579a3.862 3.862 0 0 0 -.1272 2.2379" fill="none" stroke-width=".5"/><path d="m11.9046 32.0052s-2.752 3.42-2.4353 6.0579" fill="none" stroke-width=".5"/><path d="m12.3658 33.286s-1.6915 2.6066-1.7623 4.2221" fill="none" stroke-width=".5"/><path d="m14.9482 30.4722a9.8135 9.8135 0 0 1 -.3613 2.3213" fill="none" stroke-width=".5"/><path d="m13.5072 33.811s-.7634 2.2647-1.8 2.8429" fill="none" stroke-width=".5"/><path d="m17.5159 5.7034v1.0028a1.3986 1.3986 0 0 0 .1713.6707l.6236 1.1414" fill="none"/></g></svg>

<svg xmlns="http://www.w3.org/2000/svg" viewBox="0 0 25.4457 55.8559"><defs><style>.cls-1{fill:#f7f7f5;}.cls-2{fill:#d2f1f9;}.cls-3,.cls-6{fill:none;}.cls-3,.cls-4,.cls-5,.cls-6{stroke:#3a3939;stroke-linecap:round;stroke-linejoin:round;}.cls-4{fill:#bcb8b8;}.cls-5{fill:#c4764e;}.cls-6{stroke-width:0.5px;}</style></defs><title>Asset 174</title><g id="Layer_2" data-name="Layer 2"><g id="Layer_3" data-name="Layer 3"><path class="cls-1" d="M24.9457,21.5161V51.3292a4.0284,4.0284,0,0,1-4.0292,4.0267H4.5292A4.0284,4.0284,0,0,1,.5,51.3292V21.5161a8.9966,8.9966,0,0,1,.6313-3.31l3.1931-8.0828a6.7374,6.7374,0,0,1,3.025.39c2.2863.9385,3.42-.0511,4.7677-.4168a6.8372,6.8372,0,0,1,3.9658-.3656c1.5186.3608,3.43,1.0311,5.1383.6459l3.0932,7.8293A8.9966,8.9966,0,0,1,24.9457,21.5161Z"/><path class="cls-2" d="M19.5125,6.7912l1.7087,3.5855c-1.7087.3852-3.62-.2851-5.1383-.6459a6.8372,6.8372,0,0,0-3.9658.3656c-1.3479.3657-2.4814,1.3553-4.7677.4168a6.7374,6.7374,0,0,0-3.025-.39L5.9405,6.7887a1.22,1.22,0,0,0,.1219-.49c.0219-.7483.0073-2.6032.0073-2.6032a.5685.5685,0,0,0-.5655-.5192.569.569,0,0,1-.57-.568V1.631A1.1318,1.1318,0,0,1,6.0648.5H19.3809a1.13,1.13,0,0,1,1.1285,1.131V2.6523a.5513.5513,0,0,1-.5923.5241.56.56,0,0,0-.5411.5192s-.0073,1.8866.0195,2.6227A1.1867,1.1867,0,0,0,19.5125,6.7912Z"/><path class="cls-3" d="M21.2212,10.3767,19.5125,6.7912a1.1867,1.1867,0,0,1-.117-.4729c-.0268-.7361-.0195-2.6227-.0195-2.6227a.56.56,0,0,1,.5411-.5192.5513.5513,0,0,0,.5923-.5241V1.631A1.13,1.13,0,0,0,19.3809.5H6.0648a1.1318,1.1318,0,0,0-1.131,1.131v.9774a.569.569,0,0,0,.57.568.5685.5685,0,0,1,.5655.5192s.0146,1.8549-.0073,2.6032a1.22,1.22,0,0,1-.1219.49L4.3244,10.1232"/><path class="cls-3" d="M4.3244,10.1232,1.1313,18.206A8.9966,8.9966,0,0,0,.5,21.5161V51.3292a4.0284,4.0284,0,0,0,4.0292,4.0267H20.9165a4.0284,4.0284,0,0,0,4.0292-4.0267V21.5161a8.9966,8.9966,0,0,0-.6313-3.31l-3.0932-7.8293c-1.7087.3852-3.62-.2851-5.1383-.6459a6.8372,6.8372,0,0,0-3.9658.3656c-1.3479.3657-2.4814,1.3553-4.7677.4168A6.7374,6.7374,0,0,0,4.3244,10.1232Z"/><rect class="cls-4" x="4.8362" y="0.5003" width="15.7722" height="3.0622" rx="1.1259" ry="1.1259"/><path class="cls-5" d="M9.1519,39.1092a3.9853,3.9853,0,0,1-1.5262-4.8266c1.1177-3.2638,7.1088-11.0914,8.137-10.18,1.7989,1.5944,2.0521,8.5916.99,11.8654S12.6764,41.2332,9.1519,39.1092Z"/><path class="cls-6" d="M15.81,26.5817s.4691,4.9092-.0682,6.8748"/><path class="cls-6" d="M14.5869,29.032c-.0476.156-1.08,2.2938-1.504,3.3909"/><path class="cls-6" d="M14.5869,33.981c.1622.212-.424,3.1561-3.4712,4.4733"/><path class="cls-6" d="M15.517,34.7279a4.4094,4.4094,0,0,1-2.73,4.1358"/><path class="cls-6" d="M14.9482,25.8185a11.7552,11.7552,0,0,0-2.8819,3.473"/><path class="cls-6" d="M14.7675,27.2105a13.6205,13.6205,0,0,0-2.1164,3.5958"/><path class="cls-6" d="M11.3705,30.3285s-1.9012,2.6292-1.9012,3.3534"/><path class="cls-6" d="M8.729,34.5579a3.862,3.862,0,0,0-.1272,2.2379"/><path class="cls-6" d="M11.9046,32.0052s-2.752,3.42-2.4353,6.0579"/><path class="cls-6" d="M12.3658,33.286s-1.6915,2.6066-1.7623,4.2221"/><path class="cls-6" d="M14.9482,30.4722a9.8135,9.8135,0,0,1-.3613,2.3213"/><path class="cls-6" d="M13.5072,33.811s-.7634,2.2647-1.8,2.8429"/><path class="cls-3" d="M17.5159,5.7034V6.7062a1.3986,1.3986,0,0,0,.1713.6707l.6236,1.1414"/></g></g></svg>
